dist/svg/u1F9A3.svg

<?xml version="1.0" encoding="UTF-8"?><svg id="Layer_1" xmlns="http://www.w3.org/2000/svg" viewBox="0 0 40 40"><g><path d="M30.0371,34.43853s7.29651-3.3166,7.29651-10.40901V11.63212c0-2.23113-1.27861-4.26487-3.28928-5.23189l-4.80393-2.31043c-.56132-.26997-1.21434-.27297-1.77812-.00818l-2.83583,1.33188c-.67605,.31752-1.45971,.31087-2.13028-.01807l-2.4185-1.18636c-.68526-.33614-1.49986-.26815-2.11991,.17695L6.98176,12.26517c-2.72664,1.95733-4.11763,5.28406-3.59573,8.59968l2.54205,16.14951c.04402,.27963,.28499,.48563,.56806,.48563h4.08682c.31759,0,.57505-.25746,.57505-.57505v-5.85404s3.62274,1.4455,8.41905-2.56834l.76893,8.47434c.02688,.29624,.27524,.52309,.5727,.52309h4.24233c.30315,0,.55424-.23534,.57385-.53786l.9673-14.92399c.04089-.63086,.50122-1.15521,1.12148-1.27745l4.36679-.86054c.73455-.14475,1.41838,.41747,1.41838,1.16615v2.60603s.05102,5.23366-3.77582,6.83729l.2041,3.92889Z" style="fill:#86584a;"/><path d="M31.76122,18.76239l-1.62246-.49877c-.27368-.08413-.56591,.06274-.65073,.33621-.58169,1.87542-1.97771,8.72972,7.24784,12.16746,.20346,.07582,.36502-.19203,.19338-.32501-2.04515-1.5845-6.19711-5.57538-4.82277-11.04335,.06856-.27279-.07641-.55388-.34527-.63653Z" style="fill:#e1d8c9;"/><path d="M25.57827,13.72282c-1.76717-.58257-2.72747-2.48742-2.14489-4.25458s2.48742-2.72747,4.25458-2.14489l-2.10969,6.39948Z" style="fill:#5e403b;"/><circle cx="32.70727" cy="12.35154" r="1.10951" style="fill:#3d3d3d;"/><path d="M3.27945,19.33598l-1.14777,9.30286c-.0497,.40281,.24932,.76462,.65429,.79167h0c.3833,.0256,.71685-.25967,.75101-.6423l.73238-8.2045-.98991-1.24773Z" style="fill:#86584a;"/></g><rect width="40" height="40" style="fill:none;"/></svg>

<svg id="Layer_1" data-name="Layer 1" xmlns="http://www.w3.org/2000/svg" viewBox="0 0 40 40"><defs><style>.cls-1{fill:#86584a;}.cls-2{fill:#e1d8c9;}.cls-3{fill:#5e403b;}.cls-4{fill:#3d3d3d;}.cls-5{fill:none;}</style></defs><path class="cls-1" d="M30.037,34.439s7.3-3.317,7.3-10.409v-12.4A5.806,5.806,0,0,0,34.044,6.4l-4.8-2.31a2.07,2.07,0,0,0-1.778-.008L24.626,5.414A2.462,2.462,0,0,1,22.5,5.4L20.078,4.209a2.072,2.072,0,0,0-2.12.177L6.982,12.265a8.885,8.885,0,0,0-3.6,8.6L5.928,37.014A.575.575,0,0,0,6.5,37.5h4.087a.574.574,0,0,0,.575-.575V31.071s3.623,1.445,8.419-2.568l.769,8.474a.575.575,0,0,0,.573.523h4.242a.575.575,0,0,0,.574-.538L26.7,22.038a1.393,1.393,0,0,1,1.122-1.277L32.19,19.9a1.189,1.189,0,0,1,1.419,1.166v2.606s.051,5.234-3.776,6.838Z"/><path class="cls-2" d="M31.761,18.762l-1.622-.5a.517.517,0,0,0-.651.336c-.582,1.875-1.978,8.73,7.248,12.167a.191.191,0,0,0,.193-.325c-2.045-1.584-6.2-5.575-4.823-11.043A.524.524,0,0,0,31.761,18.762Z"/><path class="cls-3" d="M25.578,13.723a3.369,3.369,0,0,1,2.11-6.4Z"/><circle class="cls-4" cx="32.707" cy="12.352" r="1.11"/><path class="cls-1" d="M3.279,19.336l-1.147,9.3a.707.707,0,0,0,.654.792h0a.708.708,0,0,0,.751-.643l.732-8.2Z"/><rect class="cls-5" width="40" height="40"/></svg>
